X:287
T:Redwing
M:4/4
L:1/8
Q:120
K:G
D2|G2 G2 GABc | d6 G2 | c2 e2 g2 e2 | d6 B2 |
c2 cB A2 c2 | B2 BA G2 B2|A2 G2 F2 G2 | A2 F2 E2 D2|
G2 G2 GABc | d6 G2 |c2 e2 g2 e2 | d6 B2 |
c2 cB A2 c2 | B2 BA G2 B2|A2 G2 F2 A2 | G6 ||
g2 | g2 f2 e4 | c4 e2  g2 | f2 e2 d4 | B6 d2 |
e2  d2 d4 | A6 d2 | e2 d2 d4 | B6 g2|
g2 f2 e4 | c4 e2 g2 | f2 e2 d4 | B6 d2 |
e2 d2 d4 | A6 c2 | B2 A2 G3 A | B2 A2 G2|]
